X: 4376
M: C
L: 1/8
K: D
d2fd e2ge | df a4 gb |\
afge d2c2 | (c2d2) z2 :|\
ga |\
b2b2 bged | dc c4 Ac |\
e3f gbag | (g2f2) z2AA |\
d2fd e2ge | df a4 gb |\
afge d2c2 | (c2d2) z2 |]


